X: 1577
T: Perîşan Saçların...
C: Yesârî Âsım Arsoy
O: Turkey
F: http://compmusic.upf.edu/node/140
N: rast--sarki--semai--perisan_saclarin--yesari_asim_arsoy
N: makam= rast
N: form= sarki
N: usul= semai = 3/4
M: 3/4
L: 1/16
K: C _1/4B ^f  
Q: 1/4=120
%%MIDI tuningsystem comma53
GABc d2z2 B4  | G12  | GABc d2z2 B4  | d12  | \
w:  ARANAĞME  |   |   |   | 
^cdef g2z2 d4  | 
w:   | 
g12  | d2c2 B2d2 B2A2  | G12  | d2c2 B2d2 B2A2  | \
w:   |   |   |   | 
G2A2 B2d2 B2A2  | d2c2 B2d2 B2A2  | 
w:   |   | 
G12  | d2c2 B2d2 B2A2  | G2A2 B2d2 B2A2  | \
w:   |   |   | 
d2c2 B2d2 B2A2  | G12  | D4 G4 z2G2  | 
w:   |   |   | 
D4 G6z2  | D4 G4 z2G2  | D4 G6z2  | G4 G8  | c12  | \
w:   |   |   |  Pe ri  |  şan   | 
B4 A4 B4  | G12  | G8 B2c2  | d12  | 
w:  saç *  la  |  rın   |  aş kı  |  mın   | 
e4 f4 g4  | d12  | G4 G8  | c12  | B4 A4 B4  | G12  | \
w:  a *  ğı  |  dır    |  Pe ri  |  şan   |  saç *  la  |  rın   | 
G8 B2c2  | d12  | e4 f4 g4  | d8 d4  | g3f g4 e4  | 
w:  aş kı  |  mın   |  a *  ğı  |  dır   SAZ  |  SAZ  | 
d4 d4 d4  | gfga f4 e4  | d8 d4  | e4 d4 c4  | e12  | \
w:   |   |   |  İn *  ce  |  cik   | 
d4 c4 B4  | d12  | B4 A4 B4  | 
w:  tel *  le  |  ri   |  kal *  bi  | 
c12  | B4 A4 B4  | G2A2 B2c2 d4  | e4 d4 c4  | e12  | \
w:  min   |  ba *  ğı  |  dır    |  İn *  ce  |  cik   | 
d4 c4 B4  | d12  | B4 A4 B4  | c12  | 
w:  tel *  le  |  ri   |  kal *  bi  |  min   | 
B4 A4 B4  | G12  | g2f2 e2d2 e2f2  | g12  | \
w:  ba *  ğı  |  dır    |  SAZ  |   | 
G2F2 E2D2 E2F2  | G12  | g4 f4 e2d2  | 
w:   |   |  Gel  *  gü  | 
g12  | g4 f4 e2d2  | g12  | g4 f4 g4  | a8 g4  | \
w:  lüm   |  kaç *  ma   |  gel   |  se viş  |  mek   | 
f4 e4 f4  | d4 e2f2 g4  | g4 f4 e2d2  | 
w:  ça *  ğı  |  dır   SAZ  |  Gel  *  gü  | 
g12  | g4 f4 e2d2  | g12  | f4 g4 f4  | a8 g4  | \
w:  lüm   |  kaç *  ma   |  gel   |  se viş  |  mek   | 
f4 e4 f4  | d12  | e4 d4 c4  | e12  | d4 c4 B4  | 
w:  ça *  ğı  |  dır    |  Zül *  fü  |  nün   |  tel *  le  | 
d12  | B4 A4 B4  | c12  | B4 A4 B4  | G2A2 B2c2 d4  | \
w:  ri   |  kal *  bi  |  min   |  ba *  ğı  |  dır    | 
e4 d4 c4  | e12  | d4 c4 B4  | d12  | 
w:  Zül *  fü  |  nün   |  tel *  le  |  ri   | 
B4 A4 B4  | c12  | B4 A4 B4  | G12  | GABc d2z2 B4  | G12  | \
w:  kal *  bi  |  min   |  ba *  ğı  |  dır    |  ARANAĞME  |   | 
GABc d2z2 B4  | 
w:   | 
d12  | ^cdef g2z2 d4  | g12  | d2c2 B2d2 B2A2  | G12  | \
w:   |   |   |   |   | 
d2c2 B2d2 B2A2  | 
w:   | 
G2A2 B2d2 B2A2  | d2c2 B2d2 B2A2  | G12  | \
w:   |   |   | 
d2c2 B2d2 B2A2  | G2A2 B2d2 B2A2  | 
w:   |   | 
d2c2 B2d2 B2A2  | G12  | D4 G4 z2G2  | D4 G6z2  | \
w:   |   |   |   | 
D4 G4 z2G2  | D4 G6z2  | 
w:   |   | 
G4 G8  | c12  | B4 A4 B4  | G12  | G8 B2c2  | d12  | \
w:  Pe ri  |  şan   |  saç *  la  |  rın   |  aş kı  |  mın   | 
e4 f4 g4  | d12  | G4 G8  | c12  | B4 A4 B4  | 
w:  a *  ğı  |  dır    |  Pe ri  |  şan   |  saç *  la  | 
G12  | G8 B2c2  | d12  | e4 f4 g4  | d8 d4  | \
w:  rın   |  aş kı  |  mın   |  a *  ğı  |  dır   SAZ  | 
g3f g4 e4  | d4 d4 d4  | gfga f4 e4  | 
w:  SAZ  |   |   | 
d8 d4  | e4 d4 c4  | e12  | d4 c4 B4  | d12  | \
w:   |  İn *  ce  |  cik   |  tel *  le  |  ri   | 
B4 A4 B4  | c12  | B4 A4 B4  | G2A2 B2c2 d4  | 
w:  kal *  bi  |  min   |  ba *  ğı  |  dır    | 
e4 d4 c4  | e12  | d4 c4 B4  | d12  | B4 A4 B4  | c12  | \
w:  İn *  ce  |  cik   |  tel *  le  |  ri   |  kal *  bi  |  min   | 
B4 A4 B4  | G12  | g2f2 e2d2 e2f2  | 
w:  ba *  ğı  |  dır    |  SAZ  | 
g12  | G2F2 E2D2 E2F2  | G12  | g4 f4 e2d2  | g12  | \
w:   |   |   |  Gel  *  gü  |  lüm   | 
g4 f4 e2d2  | g12  | g4 f4 g4  | 
w:  kaç *  ma   |  gel   |  se viş  | 
a8 g4  | f4 e4 f4  | d4 e2f2 g4  | g4 f4 e2d2  | g12  | \
w:  mek   |  ça *  ğı  |  dır   SAZ  |  Gel  *  gü  |  lüm   | 
g4 f4 e2d2  | g12  | f4 g4 f4  | 
w:  kaç *  ma   |  gel   |  se viş  | 
a8 g4  | f4 e4 f4  | d12  | e4 d4 c4  | e12  | \
w:  mek   |  ça *  ğı  |  dır    |  Zül *  fü  |  nün   | 
d4 c4 B4  | d12  | B4 A4 B4  | c12  | B4 A4 B4  | 
w:  tel *  le  |  ri   |  kal *  bi  |  min   |  ba *  ğı  | 
G2A2 B2c2 d4  | e4 d4 c4  | e12  | d4 c4 B4  | d12  | \
w:  dır    |  Zül *  fü  |  nün   |  tel *  le  |  ri   | 
B4 A4 B4  | c12  | B4 A4 B4  | G12  | 
w:  kal *  bi  |  min   |  ba *  ğı  |  dır    | 
g8 g2e2  | d8 d2c2  | B8 B2A2  | G2A2 B2c2 d2e2  | \
w:  Gel   |   |   |   | 
g8 g2e2  | d8 d2c2  | 
w:  gel   |   | 
B8 B2A2  | G12  | d4 d8  | g12  | d4 d8  | g12  | \
w:   |   |  Ba ha  |  rım   |  he za  |  rım   | 
d4 d8  | e8 c4  | c4 B4 A4  | G12  | d4 d8  | g12  | 
w:  ni gâ  |  rım   |  git *  me   |  gel    |  Ba ha  |  rım   | 
d4 d8  | g12  | d4 d8  | e8 c4  | c4 B4 A4  | G12  | \
w:  he za  |  rım   |  ni gâ  |  rım   |  git *  me   |  gel    | 
d4 d8  | g12  | d4 d8  | g12  | d4 d8  | g8 a4  | 
w:  Ha ya  |  tım   |  ci ha  |  nım   |  meh ta  |  bım   | 
b4 a4 b4  | g12  | c'4 b4 a4  | d'4 b4 a4  | g12  | g12  | |


